src/assets/icons/chat-outline-rounded.svg

<svg fill="none" height="23" viewBox="0 0 23 23" width="23" xmlns="http://www.w3.org/2000/svg"><path d="m5.7513 17.2503-2.20416 2.2042c-.30348.3035-.65103.3715-1.04267.2041s-.58714-.467-.5865-.8989v-14.92604c0-.52708.18783-.97814.5635-1.35317s.82672-.56286 1.35317-.5635h15.33336c.5271 0 .9784.18784 1.3541.5635.3757.37567.5632.82672.5625 1.35317v11.50004c0 .527-.1875.9784-.5625 1.3541s-.8264.5632-1.3541.5625zm-.81458-1.9166h14.23128v-11.50004h-15.33336v12.57814zm1.77292-1.6185h5.74996c.2716 0 .4993-.092.6833-.276s.2757-.4114.2751-.6823c-.0007-.2709-.0927-.4984-.276-.6824-.1834-.184-.4108-.276-.6824-.276h-5.74996c-.27153 0-.49898.092-.68234.276s-.27536.4115-.276.6824.09136.4986.276.6833c.18464.1846.41209.2763.68234.275zm0-3.1732h9.58336c.2715 0 .4993-.092.6833-.276s.2756-.41145.275-.68234-.0926-.49833-.276-.68233-.4108-.276-.6823-.276h-9.58336c-.27153 0-.49898.092-.68234.276s-.27536.41144-.276.68233.09136.49864.276.68334c.18464.1846.41209.2763.68234.275zm0-3.12485h9.58336c.2715 0 .4993-.092.6833-.276s.2756-.41144.275-.68233-.0926-.49833-.276-.68233-.4108-.276-.6823-.276h-9.58336c-.27153 0-.49898.092-.68234.276s-.27536.41144-.276.68233.09136.49865.276.68329.41209.27632.68234.27504z" fill="#000"/></svg>

<svg width="23" height="23" viewBox="0 0 23 23" fill="none" xmlns="http://www.w3.org/2000/svg">
<path d="M5.7513 17.2503L3.54714 19.4545C3.24366 19.758 2.89611 19.826 2.50447 19.6586C2.11283 19.4912 1.91733 19.1916 1.91797 18.7597V3.83366C1.91797 3.30658 2.1058 2.85552 2.48147 2.48049C2.85714 2.10546 3.30819 1.91763 3.83464 1.91699H19.168C19.6951 1.91699 20.1464 2.10483 20.5221 2.48049C20.8978 2.85616 21.0853 3.30721 21.0846 3.83366V15.3337C21.0846 15.8607 20.8971 16.3121 20.5221 16.6878C20.1471 17.0635 19.6957 17.251 19.168 17.2503H5.7513ZM4.93672 15.3337H19.168V3.83366H3.83464V16.4118L4.93672 15.3337ZM6.70964 13.7152H12.4596C12.7312 13.7152 12.9589 13.6232 13.1429 13.4392C13.3269 13.2552 13.4186 13.0278 13.418 12.7569C13.4173 12.486 13.3253 12.2585 13.142 12.0745C12.9586 11.8905 12.7312 11.7985 12.4596 11.7985H6.70964C6.43811 11.7985 6.21066 11.8905 6.0273 12.0745C5.84394 12.2585 5.75194 12.486 5.7513 12.7569C5.75066 13.0278 5.84266 13.2555 6.0273 13.4402C6.21194 13.6248 6.43939 13.7165 6.70964 13.7152ZM6.70964 10.542H16.293C16.5645 10.542 16.7923 10.45 16.9763 10.266C17.1603 10.082 17.2519 9.85455 17.2513 9.58366C17.2507 9.31277 17.1587 9.08533 16.9753 8.90133C16.7919 8.71733 16.5645 8.62533 16.293 8.62533H6.70964C6.43811 8.62533 6.21066 8.71733 6.0273 8.90133C5.84394 9.08533 5.75194 9.31277 5.7513 9.58366C5.75066 9.85455 5.84266 10.0823 6.0273 10.267C6.21194 10.4516 6.43939 10.5433 6.70964 10.542ZM6.70964 7.41715H16.293C16.5645 7.41715 16.7923 7.32515 16.9763 7.14115C17.1603 6.95715 17.2519 6.72971 17.2513 6.45882C17.2507 6.18793 17.1587 5.96049 16.9753 5.77649C16.7919 5.59249 16.5645 5.50049 16.293 5.50049H6.70964C6.43811 5.50049 6.21066 5.59249 6.0273 5.77649C5.84394 5.96049 5.75194 6.18793 5.7513 6.45882C5.75066 6.72971 5.84266 6.95747 6.0273 7.14211C6.21194 7.32675 6.43939 7.41843 6.70964 7.41715Z" fill="black"/>
</svg>
